X: 5
T: The Donegal
R: reel
M: 4/4
L: 1/8
K: Dmaj
A,|D2 DE FEFA|dFAF BFAF|E2 EF GFGA|(3Bcd AF EGFE|
D2 DE FEFA| dFAF ABde|(3fga ec dABG|(3FGF EF D2||
A2|defg afdf|afdf a2 (3agf|edef gfed|edef g2 (3gfe|
defg afdf|afdf abag|(3fgf (3efe dABG|(3FGF EF D2|]


Tune 1621	Setting 1621

